raw/symbols/usdt.svg

<svg width="42" height="42" viewBox="0 0 42 42" fill="none" xmlns="http://www.w3.org/2000/svg">
<g clip-path="url(#clip0_1915_201401)">
<path d="M21 0C32.5967 0 42 9.40333 42 21C42 32.5967 32.5967 42 21 42C9.40333 42 0 32.6025 0 21C0 9.3975 9.40333 0 21 0Z" fill="#009393"/>
<path d="M23.9574 18.6581V15.5315H31.1033V10.7715H11.6491V15.5315H18.7949V18.6581C12.9908 18.9265 8.62158 20.0756 8.62158 21.4523C8.62158 22.829 12.9908 23.9781 18.7949 24.2465V34.2506H23.9633V24.2465C29.7616 23.9781 34.1191 22.829 34.1191 21.4523C34.1133 20.0756 29.7558 18.9265 23.9574 18.6581ZM23.9633 23.4006C23.8174 23.4065 23.0708 23.4531 21.4024 23.4531C20.0666 23.4531 19.1333 23.4181 18.8008 23.4006V23.4065C13.6733 23.179 9.84075 22.2865 9.84075 21.219C9.84075 20.1515 13.6674 19.259 18.8008 19.0315V22.5081C19.1391 22.5315 20.0958 22.5898 21.4258 22.5898C23.0183 22.5898 23.8174 22.5256 23.9691 22.5081V19.0198C29.0908 19.2473 32.9116 20.1398 32.9116 21.2073C32.8999 22.2748 29.0791 23.1673 23.9633 23.4006Z" fill="#F3F3F3"/>
</g>
<defs>
<clipPath id="clip0_1915_201401">
<rect width="42" height="42" fill="white"/>
</clipPath>
</defs>
</svg>

<svg xmlns="http://www.w3.org/2000/svg" width="42" height="42" fill="none"><g clip-path="url(#a)"><path fill="#009393" d="M21 0c11.597 0 21 9.403 21 21s-9.403 21-21 21S0 32.602 0 21 9.403 0 21 0Z"/><path fill="#F3F3F3" d="M23.957 18.658v-3.127h7.146v-4.76H11.65v4.76h7.146v3.127c-5.804.268-10.173 1.418-10.173 2.794 0 1.377 4.369 2.526 10.173 2.794v10.005h5.168V24.247c5.799-.269 10.156-1.418 10.156-2.795-.006-1.376-4.363-2.526-10.162-2.794Zm.006 4.743c-.146.006-.892.052-2.56.052a54.82 54.82 0 0 1-2.602-.052v.006c-5.128-.228-8.96-1.12-8.96-2.188s3.826-1.96 8.96-2.188v3.477c.338.024 1.295.082 2.625.082 1.592 0 2.391-.064 2.543-.082V19.02c5.122.227 8.943 1.12 8.943 2.187-.012 1.068-3.833 1.96-8.949 2.194Z"/></g><defs><clipPath id="a"><path fill="#fff" d="M0 0h42v42H0z"/></clipPath></defs></svg>
